X: 36406
T: Sean Tiobrad Arann
R: jig
M: 6/8
K: Gmajor
d|cAF G2 G|ABA G2 d|cAG GFG|ADE FGd|cAF G2 G|
ABA GBd|fdd edd|fdd cA:|:F|GBd g2 f|gaf g2 f|d2 g gfg|
a2 g fga|bag agf|gfe f2 e|1 dcA d2 e|fed cA:|2 dcA a2 g|fed cA||

